X: 1
T: Piper In The Meadow Straying, The
M: 4/4
L: 1/8
R: hornpipe
K: Gmaj
Bc|dedc B2BA|GFGA B2Gd|ABcA GAFA|~G2B2 B2 A2|
dedc (3Bcd BA|~G3A B2Gd|ABcA GAFA|G2BA G2:|
|:G2|~A3B c2A2|BGBc d3B|cAcd e2A2|d2de f2fe|
dedc B2BA|GFGA B2Gd|ABcA GAFA|G2B2 B2 A2|
dedc B2 BA|~G3A B2Gd|ABcA GAFA|G2BA G2:|
